assets/awselasticcontainerservicecopiiotcli/original.svg

<svg height="48" viewBox="0 0 48 48" width="48" xmlns="http://www.w3.org/2000/svg"><path d="m21.53 28.04-11.857-10.78-1.346 1.48 10.142 9.22-10.102 8.267 1.266 1.548zm-2.53 8.96h16v-2h-16zm19-19c0-.362-.198-.697-.515-.873l-8.485-4.714v-6.751l15 7.94v17.595l-6-3.75zm7.484 15.875a1 1 0 0 0 .516-.875v-20a1 1 0 0 0 -.533-.884l-17-9a.999.999 0 0 0 -1.467.884v9a1 1 0 0 0 .514.874l8.486 4.715v9.411a1 1 0 0 0 .469.848l8 5a1 1 0 0 0 1.015.026m-31.461-27.874h8.977v-2h-8.977zm29.977 38h-40c-1.088-.01-2-.925-2-2v-36c0-1.084.916-2 2-2h6v2h-6v36h40v-4h2v4c0 1.084-.916 2-2 2" fill="#ed7100" fill-rule="evenodd"/></svg>

<svg xmlns="http://www.w3.org/2000/svg" width="48" height="48" viewBox="0 0 48 48"><path fill="#ed7100" fill-rule="evenodd" d="M21.53 28.04 9.673 17.26l-1.346 1.48 10.142 9.22-10.102 8.267 1.266 1.548zM19 37h16v-2H19zm19-19a1 1 0 0 0-.515-.873L29 12.413V5.662l15 7.94v17.595l-6-3.75zm7.484 15.875A1 1 0 0 0 46 33V13a1 1 0 0 0-.533-.884l-17-9A1 1 0 0 0 27 4v9a1 1 0 0 0 .514.874L36 18.589V28a1 1 0 0 0 .469.848l8 5a1 1 0 0 0 1.015.026M14.023 6H23V4h-8.977zM44 44H4c-1.088-.01-2-.925-2-2V6c0-1.084.916-2 2-2h6v2H4v36h40v-4h2v4c0 1.084-.916 2-2 2"/></svg>
